X:4
T:Riebg\"arteler Mazurka  CF (5letras transposed)
%%MIDI program 21
R:mazurka
M:3/4
L:1/8
K:C transpose=3 %%MIDI gchordon
"C"e2g2a2 | "G7"g2fBd2 | Bg fB dB | "C"ca ece2 | e2g2a2 | "G7"g2fBd2 | Bg fd fb | "C"c'2c'2z2 ::
"F"c'ba2a2 | "C"gfe2e2 | "G7"fe df ed | "C"edc4 | "F"c'ba2a2 | "C"gfe2e2 | "G7"fe df ed | "C"c2c2z2 :: [K:F]
"F"Acf2c2 | "C7"Bce2c2 | Bc ec eg | "F"a2f2f2 | Ac f2c2 | "C7"Bc e2c2 | Bc ed eg | "F"f2f2z2 :| 
% mz05862

